X: 161979
T: Pigeon's Tail HP
S: "The Roche Collection of Traditional Irish Music" [III/61/174]
L: 1/8
M: 4/4
R: hornpipe
K: Ador
gf | eA (3AAA AdBA | Bdef g2 ge | dcBA GABG | Bdef g2 gf |
eA (3AAA AdBA | Bdef g2 fg | agfd gedB | A2 AA A2 :|
Bd | eaab aged | cdef g2 ge | dcBA GABA | Bdef g2 fg |
eaab aged | cdef g2 fg | afge fd (3edB | A2 AA A2 :|
